flaticon/medical/syringe-1.svg

<svg xmlns="http://www.w3.org/2000/svg" width="32" height="32" viewBox="0 0 24 24">
    <path d="M 23.878906 23.300781 L 21.574219 20.992188 C 21.699219 20.867188 21.730469 20.679688 21.652344 20.519531 L 20.609375 18.433594 C 21.207031 17.640625 21.152344 16.507812 20.429688 15.785156 L 8.21875 3.574219 L 9.089844 2.703125 C 9.25 2.542969 9.25 2.28125 9.089844 2.121094 C 8.929688 1.960938 8.667969 1.960938 8.507812 2.121094 L 6.476562 4.152344 L 3.894531 1.570312 L 4.765625 0.699219 C 4.925781 0.539062 4.925781 0.28125 4.765625 0.121094 C 4.605469 -0.0390625 4.34375 -0.0390625 4.183594 0.121094 L 0.121094 4.183594 C -0.0390625 4.34375 -0.0390625 4.605469 0.121094 4.765625 C 0.199219 4.847656 0.304688 4.886719 0.410156 4.886719 C 0.515625 4.886719 0.621094 4.84375 0.699219 4.765625 L 1.570312 3.894531 L 4.152344 6.476562 L 2.121094 8.507812 C 1.960938 8.667969 1.960938 8.929688 2.121094 9.089844 C 2.203125 9.167969 2.304688 9.210938 2.410156 9.210938 C 2.515625 9.210938 2.621094 9.167969 2.703125 9.089844 L 3.574219 8.21875 L 15.785156 20.429688 C 16.179688 20.824219 16.699219 21.023438 17.21875 21.023438 C 17.648438 21.023438 18.074219 20.878906 18.433594 20.609375 L 20.519531 21.652344 C 20.578125 21.679688 20.640625 21.695312 20.703125 21.695312 C 20.808594 21.695312 20.914062 21.652344 20.992188 21.574219 L 23.300781 23.878906 C 23.378906 23.960938 23.484375 24 23.589844 24 C 23.695312 24 23.800781 23.960938 23.878906 23.878906 C 24.039062 23.71875 24.039062 23.460938 23.878906 23.300781 Z M 9.988281 13.472656 L 11.152344 12.3125 C 11.3125 12.152344 11.3125 11.890625 11.152344 11.730469 C 10.992188 11.570312 10.730469 11.570312 10.570312 11.730469 L 9.410156 12.894531 L 8.828125 12.3125 L 9.988281 11.152344 C 10.148438 10.988281 10.148438 10.730469 9.988281 10.570312 C 9.828125 10.410156 9.570312 10.410156 9.410156 10.570312 L 8.246094 11.730469 L 7.503906 10.988281 L 8.085938 10.410156 L 10.410156 8.085938 L 10.988281 7.503906 L 17.21875 13.734375 L 10.25 13.734375 Z M 8.085938 9.246094 L 5.316406 6.476562 L 6.476562 5.316406 L 9.246094 8.085938 Z M 7.636719 4.152344 L 10.410156 6.925781 L 9.828125 7.503906 L 7.058594 4.734375 Z M 2.15625 3.320312 L 3.320312 2.15625 L 5.894531 4.734375 L 4.734375 5.894531 Z M 4.734375 7.058594 L 7.503906 9.828125 L 6.925781 10.410156 L 4.152344 7.636719 Z M 16.363281 19.847656 L 11.070312 14.554688 L 18.039062 14.554688 L 19.847656 16.363281 C 20.320312 16.835938 20.320312 17.601562 19.847656 18.074219 L 18.074219 19.847656 C 17.601562 20.320312 16.835938 20.320312 16.363281 19.847656 Z M 19.074219 20.011719 L 20.011719 19.074219 L 20.785156 20.621094 L 20.621094 20.785156 Z M 19.074219 20.011719"/>
    <path d="M15.378906 16.199219C15.378906 16.425781 15.195312 16.609375 14.964844 16.609375 14.738281 16.609375 14.554688 16.425781 14.554688 16.199219 14.554688 15.972656 14.738281 15.789062 14.964844 15.789062 15.195312 15.789062 15.378906 15.972656 15.378906 16.199219zM17.429688 18.660156C17.429688 18.890625 17.246094 19.074219 17.019531 19.074219 16.792969 19.074219 16.609375 18.890625 16.609375 18.660156 16.609375 18.433594 16.792969 18.25 17.019531 18.25 17.246094 18.25 17.429688 18.433594 17.429688 18.660156zM18.25 16.609375C18.25 16.835938 18.066406 17.019531 17.839844 17.019531 17.613281 17.019531 17.429688 16.835938 17.429688 16.609375 17.429688 16.382812 17.613281 16.199219 17.839844 16.199219 18.066406 16.199219 18.25 16.382812 18.25 16.609375zM18.25 16.609375"/>
</svg>

<svg xmlns="http://www.w3.org/2000/svg" width="32" height="32" viewBox="0 0 24 24">
    <path d="M23.879 23.3l-2.305-2.308a.41.41 0 0 0 .078-.472l-1.043-2.086a2.025 2.025 0 0 0-.18-2.649L8.22 3.575l.87-.872a.413.413 0 0 0-.581-.582L6.477 4.152 3.895 1.57l.87-.87a.408.408 0 0 0 0-.579.413.413 0 0 0-.581 0L.12 4.184a.413.413 0 0 0 .29.703c.105 0 .21-.043.288-.121l.871-.871 2.582 2.582-2.03 2.03a.413.413 0 0 0 .288.704c.106 0 .211-.043.293-.121l.871-.871 12.211 12.21c.395.395.914.594 1.434.594.43 0 .855-.144 1.215-.414l2.086 1.043a.412.412 0 0 0 .473-.078L23.3 23.88a.396.396 0 0 0 .289.121c.105 0 .21-.04.289-.121a.408.408 0 0 0 0-.578zm-13.89-9.827l1.163-1.16a.413.413 0 0 0-.582-.583l-1.16 1.165-.582-.582 1.16-1.16a.413.413 0 0 0 0-.583.408.408 0 0 0-.578 0l-1.164 1.16-.742-.742.582-.578 2.324-2.324.578-.582 6.23 6.23H10.25zM8.085 9.246l-2.77-2.77 1.16-1.16 2.77 2.77zm-.45-5.094l2.774 2.774-.582.578-2.77-2.77zm-5.48-.832L3.32 2.156l2.575 2.578-1.16 1.16zM4.734 7.06l2.77 2.77-.578.581-2.774-2.773zm11.63 12.789l-5.294-5.293h6.97l1.808 1.808a1.21 1.21 0 0 1 0 1.711l-1.774 1.774a1.21 1.21 0 0 1-1.71 0zm2.71.164l.938-.938.773 1.547-.164.164zm0 0"/>
    <path d="M15.379 16.2c0 .226-.184.41-.414.41a.41.41 0 1 1 0-.82c.23 0 .414.183.414.41zm0 0M17.43 18.66a.411.411 0 1 1-.82 0 .41.41 0 1 1 .82 0zm0 0M18.25 16.61a.41.41 0 1 1-.82 0 .41.41 0 0 1 .82 0zm0 0"/>
</svg>
